usr/share/icons/biglinux-icons-material/24/actions/trash-empty.svg

<svg xmlns="http://www.w3.org/2000/svg" viewBox="0 0 24 24"><path d="M9 4v2h1V5h4v1h1V4H9zM5 7v1h14V7H5zm2 2v11h10V9h-1v10H8V9H7z" style="fill:currentColor;fill-opacity:1;stroke:none;color:#dedede"/></svg>

<svg xmlns="http://www.w3.org/2000/svg" viewBox="0 0 24 24">
  <defs id="defs3051">
    <style type="text/css" id="current-color-scheme">
      .ColorScheme-Text {
        color:#dedede;
      }
      </style>
  </defs>
 <path style="fill:currentColor;fill-opacity:1;stroke:none" 
     d="M 9 4 L 9 5 L 9 6 L 10 6 L 10 5 L 14 5 L 14 6 L 15 6 L 15 5 L 15 4 L 9 4 z M 5 7 L 5 8 L 19 8 L 19 7 L 5 7 z M 7 9 L 7 20 L 8 20 L 17 20 L 17 19 L 17 9 L 16 9 L 16 19 L 8 19 L 8 9 L 7 9 z "
     class="ColorScheme-Text"
     />
</svg>
